X: 552
T: Evening Prayer Blues
C:DeFord Bailey
B: jims roots
M:4/4
L:1/8
Q: 1/4=100
K:G
V:1 
(d8 | d)c B2 GB[cg][dg] | [cg]B G2 GB c2 | ([d4g4] g)_bgy{=f}^f |
"G"dc{^A}BG GGDG | BG{B}cB cBGD | dc{^A}BG gdcB | "D"GD{E}=FD "G"G,2 G,G, |
dc{^A}BG D^C=CG, | {^A}[Bd]G{A}[Bd]G cBGG | [M:3/2]gdc{^A}B B=FD^C "D"B,G{^A}B{A}B |
V:M:2/4 
z2G2 GB c2||[P:A]"G"(d8 | d3) Dy GBcd | cB G2 GBcz |([d4g4] g)_bg=f||
 "G"G8 |]
V:M:3/2 
dc{^A}BG DC{^A,}B,G y{^A}"D"BG (3BcB | [M:2/4]"G"(G4 G)D y(3=FGF | G,4 GB c2||
 dc{^A}BG DC{^A,}"D"B,G y{^A}BGcB |[M:2/4] "G"(G4 G)D (3=FGF | G,8 ||
% abcbook-tune_id 6298c25d037a35f6ac32e7fc


% abcbook-boost 0
% abcbook-tablature 
% abcbook-transpose 
% abcbook-lastupdated 1654178397884
% abcbook-soundfonts 
% abcbook-repeats 1


